backend/static_extras/images/hero.svg

<svg fill="none" height="1899" viewBox="0 0 1920 1899" width="1920" xmlns="http://www.w3.org/2000/svg" xmlns:xlink="http://www.w3.org/1999/xlink"><mask id="a" height="671" maskUnits="userSpaceOnUse" width="1259" x="556" y="292"><path d="m556.268 292.399 1257.842 333.773-275.91 65.841-83.37 270.888-186.55-122.384-179.88 103.912z" fill="#fff"/></mask><mask id="b" height="202" maskUnits="userSpaceOnUse" width="378" x="2" y="424"><path d="m2.27147 424.462 377.50253 100.172-82.804 19.76-25.021 81.299-55.989-36.73-53.984 31.186z" fill="#fff"/></mask><mask id="c" height="405" maskUnits="userSpaceOnUse" width="758" x="187" y="908"><path d="m187.555 908.931 756.856 200.839-166.015 39.61-50.165 163-112.252-73.64-108.232 62.52z" fill="#fff"/></mask><mask id="d" height="211" maskUnits="userSpaceOnUse" width="395" x="1051" y="69"><path d="m1051.37 69.5261 394.07 104.5689-86.44 20.627-26.12 84.868-58.44-38.342-56.35 32.555z" fill="#fff"/></mask><mask id="e" height="179" maskUnits="userSpaceOnUse" width="335" x="1498" y="1044"><path d="m1498.01 1044.3 334.95 88.88-73.47 17.53-22.2 72.13-49.68-32.59-47.9 27.67z" fill="#fff"/></mask><mask id="f" height="143" maskUnits="userSpaceOnUse" width="268" x="202" y="69"><path d="m202.603 69.0305 266.473 70.7095-58.45 13.949-17.662 57.387-39.522-25.927-38.106 22.014z" fill="#fff"/></mask><mask id="g" height="303" maskUnits="userSpaceOnUse" width="567" x="929" y="1250"><path d="m929.41 1250.21 566.25 150.25-124.2 29.65-37.53 121.94-83.99-55.09-80.97 46.78z" fill="#fff"/></mask><g clip-rule="evenodd" fill="#ecfeff" fill-rule="evenodd"><path d="m472.272 847.034c-26.684-22.075-48.909-49.391-64.952-80.389-42.023 29.352-93.122 46.652-148.213 46.652-142.97 0-259.0278984-116.085-259.0278984-259.101 0-101.602 58.6128984-189.662 143.9098984-232.088.078-93.227 75.749-168.921 168.951-168.921 19.407 0 38.031 3.288 55.404 9.315 38.345-95.2621 131.545-162.502 240.397-162.502 130.921 0 239.296 97.3762 256.604 223.632 27.312-10.567 56.971-16.36 88.036-16.36 106.969 0 198.059 68.805 231.239 164.536-134.75 18.16-246.104 110.135-292.2 233.892-18.076-2.583-36.544-3.914-55.325-3.914-164.805 0-306.046 101.46-364.823 245.248z"/><path d="m1274.3 1605.22v2.98c0 160.07-129.98 290.1-290.021 290.1-70.272 0-134.755-25.05-184.994-66.77-50.239 41.72-114.721 66.77-184.993 66.77-75.281 0-143.91-28.73-195.48-75.85-44.213 46.73-106.816 75.85-176.151 75.85-133.971 0-242.661-108.81-242.661-242.73 0-121.49 89.3657-222.23 205.88-240.01-2.113-12.83-3.208-25.98-3.208-39.37 0-133.93 108.774-242.73 242.661-242.73 7.669 0 15.338.39 22.85 1.1 24.729 65.67 66.438 122.97 119.808 166.57 1.174 144.26 118.712 261.04 263.255 261.04 42.336 0 82.402-10.01 117.851-27.78 59.003 51.03 136.003 81.87 220.043 81.87 29.43 0 57.99-3.75 85.14-10.88z"/><path d="m936.88 679.77c24.963-141.211 148.37-248.6 296.67-248.6 138.59 0 255.42 93.775 290.48 221.368 6.81-.861 13.7-1.331 20.74-1.331 90.62 0 164.25 73.658 164.25 164.301 0 13.072-1.56 25.832-4.46 38.042 123.18 27.006 215.44 136.748 215.44 267.94 0 151.38-122.86 274.29-274.21 274.29-71.61 0-136.87-27.56-185.78-72.56-21.05 130.48-134.36 230.28-270.69 230.28-84.82 0-160.73-38.67-211.045-99.25-34.589 28.26-78.724 45.16-126.771 45.16-110.729 0-200.652-89.94-200.652-200.71 0-9.39.626-18.63 1.878-27.71-88.506-59.56-146.805-160.62-146.805-275.207 0-182.932 148.45-331.421 331.248-331.421 34.745 0 68.317 5.401 99.775 15.343z"/></g><g mask="url(#a)"><path d="m1454.83 962.901-192.97-126.593 107.51-54.188z" fill="#231f20"/><path d="m1538.2 692.015-981.932-399.615 1257.842 333.774z" fill="#f9d00b"/><path d="m1454.82 962.901-85.46-180.781-813.103-489.721 981.933 399.614z" fill="#fff"/><path d="m1369.36 782.113-280.97 162.309-532.13-652.03z" fill="#f9d00b"/></g><path clip-rule="evenodd" d="m1456.39 967.24-188.21-123.472-180.44 104.238-539.042-660.493 1276.762 338.794-285.08 68.03zm-3.13-8.693 82.75-268.873 266.73-63.652-1238.915-328.753 525.225 643.568 179.31-103.586z" fill="#231f20" fill-rule="evenodd"/><path clip-rule="evenodd" d="m1375.2 794.559-105.78 48.475-2.31-5.046 105.78-48.475z" fill="#231f20" fill-rule="evenodd"/><g mask="url(#b)"><path d="m271.949 625.693-57.916-37.993 32.267-16.263z" fill="#231f20"/><path d="m296.97 544.395-294.69853-119.933 377.50253 100.172z" fill="#f9d00b"/><path d="m271.945 625.693-25.649-54.256-244.02796-146.975 294.69796 119.932z" fill="#fff"/><path d="m246.297 571.434-84.324 48.712-159.70419-195.687z" fill="#f9d00b"/></g><path clip-rule="evenodd" d="m272.417 627-56.486-37.057-54.154 31.284-161.77696948-198.227 383.18196948 101.679-85.558 20.417zm-.94-2.609 24.835-80.694 80.052-19.104-371.82405-98.665 157.63205 193.148 53.814-31.088z" fill="#231f20" fill-rule="evenodd"/><path clip-rule="evenodd" d="m248.051 575.175-31.747 14.549-.694-1.515 31.747-14.548z" fill="#231f20" fill-rule="evenodd"/><g mask="url(#c)"><path d="m728.233 1312.38-116.116-76.17 64.692-32.61z" fill="#231f20"/><path d="m778.396 1149.38-590.841-240.448 756.856 200.838z" fill="#e5e7eb"/><path d="m728.225 1312.38-51.424-108.78-489.253-294.669 590.842 240.449z" fill="#fff"/><path d="m676.802 1203.6-169.061 97.66-320.191-392.335z" fill="#e5e7eb"/></g><path clip-rule="evenodd" d="m729.17 1315-113.251-74.29-108.571 62.72-324.348-397.43 768.242 203.86-171.534 40.93zm-1.885-5.23 49.792-161.78 160.496-38.31-745.471-197.809 316.036 387.239 107.893-62.33z" fill="#231f20" fill-rule="evenodd"/><path clip-rule="evenodd" d="m680.318 1211.1-63.649 29.16-1.392-3.03 63.649-29.17z" fill="#231f20" fill-rule="evenodd"/><g mask="url(#d)"><path d="m1332.89 279.59-60.46-39.661 33.68-16.977z" fill="#231f20"/><path d="m1359 194.723-307.63-125.1962 394.07 104.5692z" fill="#e5e7eb"/><path d="m1332.88 279.59-26.77-56.638-254.74-153.4259 307.63 125.1959z" fill="#fff"/><path d="m1306.11 222.95-88.03 50.85-166.71-204.2766z" fill="#e5e7eb"/></g><path clip-rule="evenodd" d="m1333.37 280.954-58.96-38.683-56.53 32.657-168.88-206.9282 400 106.1422-89.31 21.313zm-.98-2.724 25.93-84.236 83.56-19.942-388.14-102.9955 164.55 201.6255 56.18-32.453z" fill="#231f20" fill-rule="evenodd"/><path clip-rule="evenodd" d="m1307.94 226.854-33.14 15.187-.73-1.581 33.14-15.187z" fill="#231f20" fill-rule="evenodd"/><g mask="url(#e)"><path d="m1737.29 1222.84-51.39-33.71 28.63-14.43z" fill="#231f20"/><path d="m1759.49 1150.71-261.48-106.41 334.95 88.88z" fill="#e5e7eb"/><path d="m1737.28 1222.84-22.75-48.14-216.52-130.4 261.47 106.41z" fill="#fff"/><path d="m1714.53 1174.7-74.82 43.22-141.7-173.62z" fill="#e5e7eb"/></g><path clip-rule="evenodd" d="m1737.7 1224-50.11-32.88-48.05 27.76-143.54-175.88 339.98 90.22-75.91 18.11zm-.83-2.31 22.03-71.6 71.03-16.95-329.9-87.54 139.86 171.37 47.74-27.58z" fill="#231f20" fill-rule="evenodd"/><path clip-rule="evenodd" d="m1716.08 1178.02-28.16 12.91-.62-1.35 28.17-12.9z" fill="#231f20" fill-rule="evenodd"/><g mask="url(#f)"><path d="m392.965 211.076-40.882-26.819 22.776-11.479z" fill="#231f20"/><path d="m410.626 153.689-208.023-84.6582 266.473 70.7102z" fill="#e5e7eb"/><path d="m392.961 211.076-18.105-38.298-172.255-103.7475 208.022 84.6585z" fill="#fff"/><path d="m374.857 172.775-59.523 34.385-112.732-138.1322z" fill="#e5e7eb"/></g><path clip-rule="evenodd" d="m393.294 212-39.872-26.158-38.226 22.083-114.196-139.9255 270.481 71.7735-60.393 14.412zm-.663-1.842 17.531-56.961 56.507-13.485-262.464-69.6455 111.269 136.3395 37.987-21.945z" fill="#231f20" fill-rule="evenodd"/><path clip-rule="evenodd" d="m376.095 175.418-22.41 10.269-.49-1.069 22.41-10.269z" fill="#231f20" fill-rule="evenodd"/><g mask="url(#g)"><path d="m1333.93 1552.05-86.88-56.99 48.4-24.39z" fill="#231f20"/><path d="m1371.46 1430.1-442.05-179.89 566.25 150.25z" fill="#f9d00b"/><path d="m1333.92 1552.05-38.47-81.38-366.045-220.46 442.045 179.9z" fill="#fff"/><path d="m1295.45 1470.67-126.49 73.07-239.554-293.54z" fill="#f9d00b"/></g><g clip-rule="evenodd" fill="#231f20" fill-rule="evenodd"><path d="m1334.63 1554-84.73-55.58-81.23 46.92-242.67-297.34 574.77 152.52-128.33 30.62zm-1.41-3.91 37.25-121.04 120.08-28.66-557.74-148 236.45 289.72 80.72-46.63z"/><path d="m1298.08 1476.26-47.62 21.83-1.04-2.28 47.62-21.82z"/></g></svg>

<svg width="1920" height="1899" viewBox="0 0 1920 1899" fill="none" xmlns="http://www.w3.org/2000/svg">
<path fill-rule="evenodd" clip-rule="evenodd" d="M472.272 847.034C445.588 824.959 423.363 797.643 407.32 766.645C365.297 795.997 314.198 813.297 259.107 813.297C116.137 813.297 0.0791016 697.212 0.0791016 554.196C0.0791016 452.594 58.692 364.534 143.989 322.108C144.067 228.881 219.738 153.187 312.94 153.187C332.347 153.187 350.971 156.475 368.344 162.502C406.689 67.2399 499.889 0 608.741 0C739.662 0 848.037 97.3762 865.345 223.632C892.657 213.065 922.316 207.272 953.381 207.272C1060.35 207.272 1151.44 276.077 1184.62 371.808C1049.87 389.968 938.516 481.943 892.42 605.7C874.344 603.117 855.876 601.786 837.095 601.786C672.29 601.786 531.049 703.246 472.272 847.034Z" fill="#ECFEFF"/>
<path fill-rule="evenodd" clip-rule="evenodd" d="M1274.3 1605.22V1608.2C1274.3 1768.27 1144.32 1898.3 984.279 1898.3C914.007 1898.3 849.524 1873.25 799.285 1831.53C749.046 1873.25 684.564 1898.3 614.292 1898.3C539.011 1898.3 470.382 1869.57 418.812 1822.45C374.599 1869.18 311.996 1898.3 242.661 1898.3C108.69 1898.3 0 1789.49 0 1655.57C0 1534.08 89.3657 1433.34 205.88 1415.56C203.767 1402.73 202.672 1389.58 202.672 1376.19C202.672 1242.26 311.446 1133.46 445.333 1133.46C453.002 1133.46 460.671 1133.85 468.183 1134.56C492.912 1200.23 534.621 1257.53 587.991 1301.13C589.165 1445.39 706.703 1562.17 851.246 1562.17C893.582 1562.17 933.648 1552.16 969.097 1534.39C1028.1 1585.42 1105.1 1616.26 1189.14 1616.26C1218.57 1616.26 1247.13 1612.51 1274.28 1605.38L1274.3 1605.22Z" fill="#ECFEFF"/>
<path fill-rule="evenodd" clip-rule="evenodd" d="M936.88 679.77C961.843 538.559 1085.25 431.17 1233.55 431.17C1372.14 431.17 1488.97 524.945 1524.03 652.538C1530.84 651.677 1537.73 651.207 1544.77 651.207C1635.39 651.207 1709.02 724.865 1709.02 815.508C1709.02 828.58 1707.46 841.34 1704.56 853.55C1827.74 880.556 1920 990.298 1920 1121.49C1920 1272.87 1797.14 1395.78 1645.79 1395.78C1574.18 1395.78 1508.92 1368.22 1460.01 1323.22C1438.96 1453.7 1325.65 1553.5 1189.32 1553.5C1104.5 1553.5 1028.59 1514.83 978.275 1454.25C943.686 1482.51 899.551 1499.41 851.504 1499.41C740.775 1499.41 650.852 1409.47 650.852 1298.7C650.852 1289.31 651.478 1280.07 652.73 1270.99C564.224 1211.43 505.925 1110.37 505.925 995.783C505.925 812.851 654.375 664.362 837.173 664.362C871.918 664.362 905.49 669.763 936.948 679.705L936.88 679.77Z" fill="#ECFEFF"/>
<mask id="mask0_2010_7142" style="mask-type:luminance" maskUnits="userSpaceOnUse" x="556" y="292" width="1259" height="671">
<path d="M556.268 292.399L1814.11 626.172L1538.2 692.013L1454.83 962.901L1268.28 840.517L1088.4 944.429L556.268 292.399Z" fill="white"/>
</mask>
<g mask="url(#mask0_2010_7142)">
<path d="M1454.83 962.901L1261.86 836.308L1369.37 782.12L1454.83 962.901Z" fill="#231F20"/>
<path d="M1538.2 692.015L556.268 292.4L1814.11 626.174L1538.2 692.015Z" fill="#F9D00B"/>
<path d="M1454.82 962.901L1369.36 782.12L556.257 292.399L1538.19 692.013L1454.82 962.901Z" fill="white"/>
<path d="M1369.36 782.113L1088.39 944.422L556.26 292.392L1369.36 782.113Z" fill="#F9D00B"/>
</g>
<path fill-rule="evenodd" clip-rule="evenodd" d="M1456.39 967.24L1268.18 843.768L1087.74 948.006L548.698 287.513L1825.46 626.307L1540.38 694.337L1456.39 967.24ZM1453.26 958.547L1536.01 689.674L1802.74 626.022L563.825 297.269L1089.05 940.837L1268.36 837.251L1453.26 958.547Z" fill="#231F20"/>
<path fill-rule="evenodd" clip-rule="evenodd" d="M1375.2 794.559L1269.42 843.034L1267.11 837.988L1372.89 789.513L1375.2 794.559Z" fill="#231F20"/>
<mask id="mask1_2010_7142" style="mask-type:luminance" maskUnits="userSpaceOnUse" x="2" y="424" width="378" height="202">
<path d="M2.27147 424.462L379.774 524.634L296.97 544.394L271.949 625.693L215.96 588.963L161.976 620.149L2.27147 424.462Z" fill="white"/>
</mask>
<g mask="url(#mask1_2010_7142)">
<path d="M271.949 625.693L214.033 587.7L246.3 571.437L271.949 625.693Z" fill="#231F20"/>
<path d="M296.97 544.395L2.27147 424.462L379.774 524.634L296.97 544.395Z" fill="#F9D00B"/>
<path d="M271.945 625.693L246.296 571.437L2.26804 424.462L296.966 544.394L271.945 625.693Z" fill="white"/>
<path d="M246.297 571.434L161.973 620.146L2.26881 424.459L246.297 571.434Z" fill="#F9D00B"/>
</g>
<path fill-rule="evenodd" clip-rule="evenodd" d="M272.417 627L215.931 589.943L161.777 621.227L3.05176e-05 423L383.182 524.679L297.624 545.096L272.417 627ZM271.477 624.391L296.312 543.697L376.364 524.593L4.53995 425.928L162.172 619.076L215.986 587.988L271.477 624.391Z" fill="#231F20"/>
<path fill-rule="evenodd" clip-rule="evenodd" d="M248.051 575.175L216.304 589.724L215.61 588.209L247.357 573.661L248.051 575.175Z" fill="#231F20"/>
<mask id="mask2_2010_7142" style="mask-type:luminance" maskUnits="userSpaceOnUse" x="187" y="908" width="758" height="405">
<path d="M187.555 908.931L944.411 1109.77L778.396 1149.38L728.231 1312.38L615.979 1238.74L507.747 1301.26L187.555 908.931Z" fill="white"/>
</mask>
<g mask="url(#mask2_2010_7142)">
<path d="M728.233 1312.38L612.117 1236.21L676.809 1203.6L728.233 1312.38Z" fill="#231F20"/>
<path d="M778.396 1149.38L187.555 908.932L944.411 1109.77L778.396 1149.38Z" fill="#E5E7EB"/>
<path d="M728.225 1312.38L676.801 1203.6L187.548 908.931L778.39 1149.38L728.225 1312.38Z" fill="white"/>
<path d="M676.802 1203.6L507.741 1301.26L187.55 908.925L676.802 1203.6Z" fill="#E5E7EB"/>
</g>
<path fill-rule="evenodd" clip-rule="evenodd" d="M729.17 1315L615.919 1240.71L507.348 1303.43L183 906L951.242 1109.86L779.708 1150.79L729.17 1315ZM727.285 1309.77L777.077 1147.99L937.573 1109.68L192.102 911.871L508.138 1299.11L616.031 1236.78L727.285 1309.77Z" fill="#231F20"/>
<path fill-rule="evenodd" clip-rule="evenodd" d="M680.318 1211.1L616.669 1240.26L615.277 1237.23L678.926 1208.06L680.318 1211.1Z" fill="#231F20"/>
<mask id="mask3_2010_7142" style="mask-type:luminance" maskUnits="userSpaceOnUse" x="1051" y="69" width="395" height="211">
<path d="M1051.37 69.5261L1445.44 174.095L1359 194.722L1332.88 279.59L1274.44 241.248L1218.09 273.803L1051.37 69.5261Z" fill="white"/>
</mask>
<g mask="url(#mask3_2010_7142)">
<path d="M1332.89 279.59L1272.43 239.929L1306.11 222.952L1332.89 279.59Z" fill="#231F20"/>
<path d="M1359 194.723L1051.37 69.5268L1445.44 174.096L1359 194.723Z" fill="#E5E7EB"/>
<path d="M1332.88 279.59L1306.11 222.952L1051.37 69.5261L1359 194.722L1332.88 279.59Z" fill="white"/>
<path d="M1306.11 222.95L1218.08 273.8L1051.37 69.5234L1306.11 222.95Z" fill="#E5E7EB"/>
</g>
<path fill-rule="evenodd" clip-rule="evenodd" d="M1333.37 280.954L1274.41 242.271L1217.88 274.928L1049 67.9998L1449 174.142L1359.69 195.455L1333.37 280.954ZM1332.39 278.23L1358.32 193.994L1441.88 174.052L1053.74 71.0565L1218.29 272.682L1274.47 240.229L1332.39 278.23Z" fill="#231F20"/>
<path fill-rule="evenodd" clip-rule="evenodd" d="M1307.94 226.854L1274.8 242.041L1274.07 240.46L1307.21 225.273L1307.94 226.854Z" fill="#231F20"/>
<mask id="mask4_2010_7142" style="mask-type:luminance" maskUnits="userSpaceOnUse" x="1498" y="1044" width="335" height="179">
<path d="M1498.01 1044.3L1832.96 1133.18L1759.49 1150.71L1737.29 1222.84L1687.61 1190.25L1639.71 1217.92L1498.01 1044.3Z" fill="white"/>
</mask>
<g mask="url(#mask4_2010_7142)">
<path d="M1737.29 1222.84L1685.9 1189.13L1714.53 1174.7L1737.29 1222.84Z" fill="#231F20"/>
<path d="M1759.49 1150.71L1498.01 1044.3L1832.96 1133.18L1759.49 1150.71Z" fill="#E5E7EB"/>
<path d="M1737.28 1222.84L1714.53 1174.7L1498.01 1044.3L1759.48 1150.71L1737.28 1222.84Z" fill="white"/>
<path d="M1714.53 1174.7L1639.71 1217.92L1498.01 1044.3L1714.53 1174.7Z" fill="#E5E7EB"/>
</g>
<path fill-rule="evenodd" clip-rule="evenodd" d="M1737.7 1224L1687.59 1191.12L1639.54 1218.88L1496 1043L1835.98 1133.22L1760.07 1151.33L1737.7 1224ZM1736.87 1221.69L1758.9 1150.09L1829.93 1133.14L1500.03 1045.6L1639.89 1216.97L1687.63 1189.39L1736.87 1221.69Z" fill="#231F20"/>
<path fill-rule="evenodd" clip-rule="evenodd" d="M1716.08 1178.02L1687.92 1190.93L1687.3 1189.58L1715.47 1176.68L1716.08 1178.02Z" fill="#231F20"/>
<mask id="mask5_2010_7142" style="mask-type:luminance" maskUnits="userSpaceOnUse" x="202" y="69" width="268" height="143">
<path d="M202.603 69.0305L469.076 139.74L410.626 153.689L392.964 211.076L353.442 185.149L315.336 207.163L202.603 69.0305Z" fill="white"/>
</mask>
<g mask="url(#mask5_2010_7142)">
<path d="M392.965 211.076L352.083 184.257L374.859 172.778L392.965 211.076Z" fill="#231F20"/>
<path d="M410.626 153.689L202.603 69.0308L469.076 139.741L410.626 153.689Z" fill="#E5E7EB"/>
<path d="M392.961 211.076L374.856 172.778L202.601 69.0305L410.623 153.689L392.961 211.076Z" fill="white"/>
<path d="M374.857 172.775L315.334 207.16L202.602 69.0278L374.857 172.775Z" fill="#E5E7EB"/>
</g>
<path fill-rule="evenodd" clip-rule="evenodd" d="M393.294 212L353.422 185.842L315.196 207.925L201 67.9995L471.481 139.773L411.088 154.185L393.294 212ZM392.631 210.158L410.162 153.197L466.669 139.712L204.205 70.0665L315.474 206.406L353.461 184.461L392.631 210.158Z" fill="#231F20"/>
<path fill-rule="evenodd" clip-rule="evenodd" d="M376.095 175.418L353.685 185.687L353.195 184.618L375.605 174.349L376.095 175.418Z" fill="#231F20"/>
<mask id="mask6_2010_7142" style="mask-type:luminance" maskUnits="userSpaceOnUse" x="929" y="1250" width="567" height="303">
<path d="M929.41 1250.21L1495.66 1400.46L1371.46 1430.11L1333.93 1552.05L1249.94 1496.96L1168.97 1543.74L929.41 1250.21Z" fill="white"/>
</mask>
<g mask="url(#mask6_2010_7142)">
<path d="M1333.93 1552.05L1247.05 1495.06L1295.45 1470.67L1333.93 1552.05Z" fill="#231F20"/>
<path d="M1371.46 1430.1L929.41 1250.21L1495.66 1400.46L1371.46 1430.1Z" fill="#F9D00B"/>
<path d="M1333.92 1552.05L1295.45 1470.67L929.405 1250.21L1371.45 1430.11L1333.92 1552.05Z" fill="white"/>
<path d="M1295.45 1470.67L1168.96 1543.74L929.406 1250.2L1295.45 1470.67Z" fill="#F9D00B"/>
</g>
<path fill-rule="evenodd" clip-rule="evenodd" d="M1334.63 1554L1249.9 1498.42L1168.67 1545.34L926 1248L1500.77 1400.52L1372.44 1431.14L1334.63 1554ZM1333.22 1550.09L1370.47 1429.05L1490.55 1400.39L932.81 1252.39L1169.26 1542.11L1249.98 1495.48L1333.22 1550.09Z" fill="#231F20"/>
<path fill-rule="evenodd" clip-rule="evenodd" d="M1298.08 1476.26L1250.46 1498.09L1249.42 1495.81L1297.04 1473.99L1298.08 1476.26Z" fill="#231F20"/>
</svg>
